X:1
T:Title
%%score 1 2 3
L:1/8
M:3/2
K:C
V:1 treble nm="Part_1"
V:2 treble-8 nm="Part_2"
V:3 treble-8 nm="Part_3"
V:1
 D6 E2 F4- | F2 E2 G2 E2 D2 C2 | E6 G2 ^F2 E2 | G8 G4 | F4 F4 E2 F2 | G6 F2 G2 E2 | G4 z4 G2 F2 | %7
 D6 F2 E2 D2 | F4 E6 F2 | G2 F2 E2 E2 D2 C2 | E8 z4 | F4 G6 F2 | F8 F4 | E6 F2 G2 F2 | %14
 A4 G2 A2 F2 E2 | G8 G2 F2 | D6 E2 F2 E2 | G4 F2 F2 E2 D2 | F8 z4 | F6 E2 D2 F2 | E4 G4 F2 E2 | %21
 E4 F2 D2 E2 C2 | E8 E4 | F4 D4 F4 | E4 G4 F2 E2 | D4 F4 E2 D2 | D4 C2 F2 E2 D2 | F6 E2 F2 D2 | %28
 C4 C4 D2 E2 | F4 F4 F4 | E4 D2 F2 G2 F2 | G6 F2 D4 | E2 F4 E2 D2 B,2 | C6 B,2 B,2 A,2 | %34
 C4 E4 D2 G2 | F2 E2 G4 A4- | A2 G2 G4 F4 | E6 G2 F2 E2 | G4 F4 A2 _B2 | G2 A4 F2 E2 D2 | %40
 G6 A2 ^F2 E2 | G4 z4 G2 F2 | E4 F6 E2 | G8 G4 | E2 F2 G2 G4 F2 | G4 z4 z4 | G2 F2 D6 E2 | %47
 F4 E2 G4 F2 | E4 F2 D2 E2 C2 | E12 |] %50
V:2
 A8 A4 | D2 C4 E2 F2 A2 | E2 C4 G2 D4 | d4 c4 B2 c2 | A8 c4 | d6 c2 c2 B2 | d8 B4- | B4 A4 E4 | %8
 D4 c8 | d2 c2 B4 A4 | B8 G4 | D4 C4 E4 | D8 F4 | C4 G2 A2 c2 A2 | c4 e2 c4 c2 | d8 d4 | B8 c4 | %17
 d4 c4 B4 | c8 A4 | F4 D2 E2 G2 D2 | C8 z2 c2 | B4 A2 D2 E2 F2 | C12 | D8 A2 B2 | c8 A2 G2 | %25
 A4 D4 E2 A2- | A2 G2 F2 c2 B4 | c8 A4- | A4 A6 G2 | A4 D8 | A4 z2 F2 E2 D2 | d4 G2 A4 D2 | %32
 c8 B2 d2 | A4 G4 F4 | G8 B4 | c4 G4 F4 | E4 G4 D4 | d8 c4 | d8 c2 _B2 | d2 c2 A4 _B2 G2- | %40
 G2 _E4 C2 D4 | d12 | G2 A2 F4 D4 | C8 G4 | z2 c2 e2 d2 c4 | d4 B2 c2 A2 F2 | G2 A4 D2 A2 D2- | %47
 D2 A2 B4 c4- | c2 B2 c2 G2 c4 | B12 |] %50
V:3
 D8 D4 | A2 c4 G2 A2 A2 | G4 c2 B2 A4 | G4 C4 E4 | D4 D4 A4 | B8 A4 | G8 G4 | G4 F4 G4 | A8 A4 | %9
 G2 A2 G2 E2 F4 | E12 | A4 c8 | d8 A4 | G4 E2 D2 C2 D2 | F4 E2 F2 A4 | G12 | G8 A4 | G2 _B4 A2 G4 | %18
 F12 | D4 A4 B2 A2 | c8 A4 | G4 A2 F2 G2 A2 | E4 G8 | F12 | C8 D2 E2 | F4 A4 G2 F2- | %26
 F2 _B2 A4 G4 | F12 | F8 F2 E2 | D4 d8 | c4 B2 A2 B2 d2 | G4 E2 D2 F4 | A8 G4 | F4 E2 C2 D4 | %34
 C8 G4 | A4 B4 c4- | c4 B4 A4 | G8 A4 | G4 D4 F2 G2- | G2 A2 F4 G2 _B2- | B2 G2 _B2 c2 A4 | %41
 G8 E2 D2 | G4 d8 | G8 B4 | A4 c2 B2 A4 | G6 A2 D4 | E2 D4 F4 A2- | A2 F2 G4 E2 A2- | %48
 A2 G2 A2 B2 A4 | E12 |] %50

